X:198
M:4/4
L:1/4
K:D
A | d c/B/ A B/A/ | G/F/ E !fermata!D F/G/ | A A B c | d d/e/ !fermata!c d/c/ | B A G E | F3/2 G/ A !sintro!D/E/ | F2 E2 | D3 !eintro!|]
